resources/svg/arrow-o.svg

<svg xmlns="http://www.w3.org/2000/svg" viewBox="0 0 15 15" fill="none"><path d="M0.5 0.5V0C0.223858 0 0 0.223858 0 0.5L0.5 0.5ZM0.5 4.5H0C0 4.70223 0.121821 4.88455 0.308658 4.96194C0.495495 5.03933 0.710554 4.99655 0.853553 4.85355L0.5 4.5ZM4.5 0.5L4.85355 0.853553C4.99655 0.710554 5.03933 0.495495 4.96194 0.308658C4.88455 0.121821 4.70223 0 4.5 0V0.5ZM2.14645 2.85355L14.1464 14.8536L14.8536 14.1464L2.85355 2.14645L2.14645 2.85355ZM0 0.5V4.5H1V0.5H0ZM0.853553 4.85355L4.85355 0.853553L4.14645 0.146447L0.146447 4.14645L0.853553 4.85355ZM4.5 0H0.5V1H4.5V0Z" fill="black"/></svg>

<svg xmlns="http://www.w3.org/2000/svg" viewBox="0 0 15 15" fill="none"><path d="M.5.5V0a.5.5 0 00-.5.5h.5zm0 4H0a.5.5 0 00.854.354L.5 4.5zm4-4l.354.354A.5.5 0 004.5 0v.5zM2.146 2.854l12 12 .708-.708-12-12-.708.708zM0 .5v4h1v-4H0zm.854 4.354l4-4-.708-.708-4 4 .708.708zM4.5 0h-4v1h4V0z" fill="currentColor"/></svg>
